!!!!SEGMENT: pl-wtm--r-1762--001_stefani-jozef--hans-jurga-melodrama.krn
!!!cenid: 18xx:1912
!!!COM: Stefani, Józef
!!!COM-rismid: pe30024097
!!!CDT: 1800/04/16-1876/03/19
!!!CNT: Polish
!!!OPR: Hans Jurga
!!!OTL: Melodrama
!!!OMV: 001
!!!PDT:
!!!AGN: Secular
!!!SMS-siglum: PL-Wtm
!!!SMS-shelfmark: R 1762
!!!SMS-shelfwork: 001-001 M
!!!SMS-variant:
!!!SMS-altvar:
!!!NIFC-rismid: 1001131405
!!!URL-scan: http://repozytorium.nifc.pl/skany/pl-wtm-nut--r1762
!!!ONB-nifc: UWAGA: No. 1., skany 0005-0009
**kern	**dynam	**kern	**dynam	**kern	**kern	**dynam	**kern	**dynam	**kern	**kern	**kern	**kern	**kern	**dynam	**kern	**kern	**dynam	**kern	**dynam	**kern	**dynam	**kern	**dynam	**kern	**dynam	**kern	**dynam	**kern	**dynam
*part18	*part18	*part17	*part17	*part16	*part15	*part15	*part14	*part14	*part13	*part12	*part11	*part10	*part9	*part9	*part8	*part7	*part7	*part6	*part6	*part5	*part5	*part4	*part4	*part3	*part3	*part2	*part2	*part1	*part1
*staff18	*	*staff17	*	*staff16	*staff15	*	*staff14	*	*staff13	*staff12	*staff11	*staff10	*staff9	*	*staff8	*staff7	*	*staff6	*	*staff5	*	*staff4	*	*staff3	*	*staff2	*	*staff1	*
*Iempty	*	*Icello	*	*Iviola	*Ivioln	*	*Ivioln	*	*Idrum	*Itrngl	*Itimp	*Itromt	*Itromt	*	*Itromp	*Ifagot	*	*Icor	*	*Icor	*	*Iclars	*	*Ioboe	*	*Ipicco	*	*Iflt	*
*I"C. Baſsi	*	*I"Viloncelli	*	*I"Viole	*I"Violino	*	*I"Violini	*	*I"P. Tambour	*I"Triangolo G. Cassa	*I"Timpani c.g.	*I"Trombone	*I"Tromboni	*	*I"Trombe	*I"Fagotti in C	*	*I"Corno in F	*	*I"Corni in F	*	*I"Clarinetti in C	*	*I"Oboe in C	*	*I"Picolo	*	*I"Flauto	*
*I'C-b.	*	*I'Vc	*	*I'Ve	*	*	*I'Vn	*	*I'P. Tamb.	*I'T. G. Cas.	*I'Timp. c.g.	*	*I'Tr-ni	*	*I'Tr-be	*I'Fag. in C	*	*	*	*I'C. in F	*	*I'Cl. in C	*	*I'Ob. in C	*	*I'Pic.	*	*I'Fl.	*
*clefF4	*	*clefF4	*	*clefC3	*clefG2	*	*clefG2	*	*clefF4	*clefF4	*clefF4	*clefF4	*clefC4	*	*clefG2	*clefF4	*	*clefG2	*	*clefG2	*	*clefG2	*	*clefG2	*	*clefG2	*	*clefG2	*
*ITrd0c0	*	*	*	*	*	*	*	*	*	*	*	*	*	*	*	*	*	*	*	*ITrd4c7	*	*	*	*	*	*ITrd0c0	*	*	*
*k[]	*	*k[]	*	*k[]	*k[]	*	*k[]	*	*k[]	*k[]	*k[]	*k[]	*k[]	*	*k[]	*k[]	*	*k[]	*	*k[]	*	*k[]	*	*k[]	*	*k[]	*	*k[]	*
*C:	*	*C:	*	*C:	*C:	*	*C:	*	*C:	*C:	*C:	*C:	*C:	*	*C:	*C:	*	*C:	*	*C:	*	*C:	*	*C:	*	*C:	*	*C:	*
*M4/4	*	*M4/4	*	*M4/4	*M4/4	*	*M4/4	*	*M4/4	*M4/4	*M4/4	*M4/4	*M4/4	*	*M4/4	*M4/4	*	*M4/4	*	*M4/4	*	*M4/4	*	*M4/4	*	*M4/4	*	*M4/4	*
*met(c)	*	*met(c)	*	*met(c)	*met(c)	*	*met(c)	*	*met(c)	*met(c)	*met(c)	*met(c)	*met(c)	*	*met(c)	*met(c)	*	*met(c)	*	*met(c)	*	*met(c)	*	*met(c)	*	*met(c)	*	*met(c)	*
=1	=1	=1	=1	=1	=1	=1	=1	=1	=1	=1	=1	=1	=1	=1	=1	=1	=1	=1	=1	=1	=1	=1	=1	=1	=1	=1	=1	=1	=1
!	!	!	!	!	!	!	!	!	!	!	!	!	!	!	!	!	!	!	!	!	!	!	!	!	!	!	!	!LO:TX:a:t=No Io melodrama	!
!LO:TX:b:t=pizz	!	!	!	!	!	!	!	!	!	!	!	!	!	!	!	!	!	!	!	!	!	!	!	!	!	!	!	!LO:TX:a:t=Allo. modto.	!
4GG/	.	1r	.	8r	8r	p	1r	.	1ryy	1ryy	1ryy	1ryy	1ryy	.	1ryy	1ryy	.	1ryy	.	1ryy	.	8r	.	1r	.	1r	.	8r	p
!	!	!	!	!	!	!	!	!	!	!	!	!	!	!	!	!	!	!	!	!	!	!	!	!	!	!	!	!LO:TX:a:t=No Io melodrama	!
!	!	!	!	!	!	!	!	!	!	!	!	!	!	!	!	!	!	!	!	!	!	!	!	!	!	!	!	!LO:TX:a:t=Allo. modto.	!
.	.	.	.	8B/L	8f/L 8G/	.	.	.	.	.	.	.	.	.	.	.	.	.	.	.	.	8f/L	.	.	.	.	.	8ff'\L	.
4r	.	.	.	8B/	8f/ 8G/	.	.	.	.	.	.	.	.	.	.	.	.	.	.	.	.	8b/	.	.	.	.	.	8bb'\	.
.	.	.	.	8B/J	8f/J 8G/	.	.	.	.	.	.	.	.	.	.	.	.	.	.	.	.	8dd/J	.	.	.	.	.	8ddd'\J	.
*	*	*	*	*tremolo	*tremolo	*	*	*	*	*	*	*	*	*	*	*	*	*	*	*	*	*	*	*	*	*	*	*	*
2r	.	.	.	8B/L	8f/L 8G/	.	.	.	.	.	.	.	.	.	.	.	.	.	.	.	.	4f/	.	.	.	.	.	4ff\	.
.	.	.	.	8B/	8f/ 8G/	.	.	.	.	.	.	.	.	.	.	.	.	.	.	.	.	.	.	.	.	.	.	.	.
!	!	!	!	!	!	!	!	!	!	!	!	!	!	!	!	!	!	!	!	!	!	!	!	!	!	!	!	!LO:TX:a:t=(ale to tylko kiedy w dobrym humorze)	!
!	!	!	!	!	!	!	!	!	!	!	!	!	!	!	!	!	!	!	!	!	!	!	!	!	!	!	!	!LO:TX:b:t=Jak słońce slicznie świeci,	!
.	.	.	.	8B/	8f/ 8G/	.	.	.	.	.	.	.	.	.	.	.	.	.	.	.	.	4r	.	.	.	.	.	4r	.
.	.	.	.	8B/J	8f/J 8G/	.	.	.	.	.	.	.	.	.	.	.	.	.	.	.	.	.	.	.	.	.	.	.	.
*	*	*	*	*Xtremolo	*Xtremolo	*	*	*	*	*	*	*	*	*	*	*	*	*	*	*	*	*	*	*	*	*	*	*	*
=2	=2	=2	=2	=2	=2	=2	=2	=2	=2	=2	=2	=2	=2	=2	=2	=2	=2	=2	=2	=2	=2	=2	=2	=2	=2	=2	=2	=2	=2
4GG/	.	1r	.	8r	8r	.	1r	.	1ryy	1ryy	1ryy	1ryy	1ryy	.	1ryy	1ryy	.	1ryy	.	1ryy	.	8r	.	1r	.	1r	.	8r	.
.	.	.	.	8c\L	8e/L 8G/	.	.	.	.	.	.	.	.	.	.	.	.	.	.	.	.	8e/L	.	.	.	.	.	8ee\L	.
4r	.	.	.	8c\	8e/ 8G/	.	.	.	.	.	.	.	.	.	.	.	.	.	.	.	.	8cc/	.	.	.	.	.	8aa\	.
.	.	.	.	8c\J	8e/J 8G/	.	.	.	.	.	.	.	.	.	.	.	.	.	.	.	.	8ee/J	.	.	.	.	.	8ccc\J	.
*	*	*	*	*tremolo	*tremolo	*	*	*	*	*	*	*	*	*	*	*	*	*	*	*	*	*	*	*	*	*	*	*	*
2r	.	.	.	8c\L	8e/L 8G/	.	.	.	.	.	.	.	.	.	.	.	.	.	.	.	.	4g/	.	.	.	.	.	4gg\	.
.	.	.	.	8c\	8e/ 8G/	.	.	.	.	.	.	.	.	.	.	.	.	.	.	.	.	.	.	.	.	.	.	.	.
!	!	!	!	!	!	!	!	!	!	!	!	!	!	!	!	!	!	!	!	!	!	!	!	!	!	!	!	!LO:TX:b:t=Dzień tak piękny i jasny	!
.	.	.	.	8c\	8e/ 8G/	.	.	.	.	.	.	.	.	.	.	.	.	.	.	.	.	4r	.	.	.	.	.	4r	.
.	.	.	.	8c\J	8e/J 8G/	.	.	.	.	.	.	.	.	.	.	.	.	.	.	.	.	.	.	.	.	.	.	.	.
*	*	*	*	*Xtremolo	*Xtremolo	*	*	*	*	*	*	*	*	*	*	*	*	*	*	*	*	*	*	*	*	*	*	*	*
!!LO:PB:g=original
=3	=3	=3	=3	=3	=3	=3	=3	=3	=3	=3	=3	=3	=3	=3	=3	=3	=3	=3	=3	=3	=3	=3	=3	=3	=3	=3	=3	=3	=3
!	!	!	!	!	!	!	!	!	!	!	!	!	!	!	!	!	!	!	!	!	!	!	!	!LO:TX:b:t=zaglądają w Każdy Kącik	!	!	!	!	!
4GG/	.	1r	.	8r	8r	.	1r	.	1ryy	1ryy	1ryy	1ryy	1r	.	1r	1r	.	1r	.	1r	.	8r	.	1r	.	1r	.	8r	.
.	.	.	.	8d\L 8A\	8f#X/L 8c/	.	.	.	.	.	.	.	.	.	.	.	.	.	.	.	.	8f#X/L	.	.	.	.	.	8ff#X'\L	.
4r	.	.	.	8d\ 8A\	8f#/ 8c/	.	.	.	.	.	.	.	.	.	.	.	.	.	.	.	.	8a/	.	.	.	.	.	8aa'\	.
.	.	.	.	8d\J 8A\	8f#/J 8c/	.	.	.	.	.	.	.	.	.	.	.	.	.	.	.	.	8ff#X/J	.	.	.	.	.	8fff#X'\J	.
*	*	*	*	*tremolo	*tremolo	*	*	*	*	*	*	*	*	*	*	*	*	*	*	*	*	*	*	*	*	*	*	*	*
2r	.	.	.	8d\L 8A\	8f#/L 8c/	.	.	.	.	.	.	.	.	.	.	.	.	.	.	.	.	4dd/	.	.	.	.	.	4ddd\	.
.	.	.	.	8d\ 8A\	8f#/ 8c/	.	.	.	.	.	.	.	.	.	.	.	.	.	.	.	.	.	.	.	.	.	.	.	.
!	!	!	!	!	!	!	!	!	!	!	!	!	!	!	!	!	!	!	!	!	!	!	!	!	!	!	!	!LO:TX:a:t=[[Do wszystkich zakątków ziemi]]	!
.	.	.	.	8d\ 8A\	8f#/ 8c/	.	.	.	.	.	.	.	.	.	.	.	.	.	.	.	.	4r	.	.	.	.	.	4r	.
.	.	.	.	8d\J 8A\	8f#/J 8c/	.	.	.	.	.	.	.	.	.	.	.	.	.	.	.	.	.	.	.	.	.	.	.	.
*	*	*	*	*Xtremolo	*Xtremolo	*	*	*	*	*	*	*	*	*	*	*	*	*	*	*	*	*	*	*	*	*	*	*	*
=4	=4	=4	=4	=4	=4	=4	=4	=4	=4	=4	=4	=4	=4	=4	=4	=4	=4	=4	=4	=4	=4	=4	=4	=4	=4	=4	=4	=4	=4
!LO:TX:b:t=arco	!	!	!	!	!	!	!	!	!	!	!	!	!	!	!	!	!	!	!	!	!	!	!	!	!	!	!	!	!
.	.	.	.	.	(8qf#X/	.	(8qff#X/	f	.	.	.	.	.	.	.	.	.	.	.	.	.	(8qff#X/	f	.	.	.	.	8qfff#X/	f
*	*	*	*	*	*	*	*	*	*	*	*	*	*	*	*	*	*	*	*	*	*	*^	*	*	*	*	*	*	*
8r	.	1r	.	8r	4g/)	.	4gg\)	.	1ryy	1ryy	1ryy	1ryy	1r	.	1r	4r	.	1r	.	1r	.	4gg/)	4r	.	1r	.	1r	.	4ggg\	.
!	!LO:DY:a	!	!	!	!	!	!	!	!	!	!	!	!	!	!	!	!	!	!	!	!	!	!	!	!	!	!	!	!	!
.	f	.	.	.	.	.	.	.	.	.	.	.	.	.	.	.	.	.	.	.	.	.	.	.	.	.	.	.	.	.
8G\L	.	.	.	8g\L	.	.	.	.	.	.	.	.	.	.	.	.	.	.	.	.	.	.	.	.	.	.	.	.	.	.
8D\	.	.	.	8d\	8dd\L	.	8dd\L	.	.	.	.	.	.	.	.	8d\L	.	.	.	.	.	8dd/L	8dd\L	.	.	.	.	.	8ddd\L	.
8BB\J	.	.	.	8B\J	8b\J	.	8b\J	.	.	.	.	.	.	.	.	8B\J	.	.	.	.	.	8b/J	8b\J	.	.	.	.	.	8bb\J	.
4GG/	.	.	.	4G/	4g/	.	4g/	.	.	.	.	.	.	.	.	4G\	.	.	.	.	.	4g/	4g\	.	.	.	.	.	4gg\	.
4r	.	.	.	4r	4r	.	4r	.	.	.	.	.	.	.	.	4r	.	.	.	.	.	4r	4ryy	.	.	.	.	.	4r	.
*	*	*	*	*	*	*	*	*	*	*	*	*	*	*	*	*	*	*	*	*	*	*v	*v	*	*	*	*	*	*	*
=5	=5	=5	=5	=5	=5	=5	=5	=5	=5	=5	=5	=5	=5	=5	=5	=5	=5	=5	=5	=5	=5	=5	=5	=5	=5	=5	=5	=5	=5
*	*	*tremolo	*	*tremolo	*tremolo	*	*	*	*	*	*	*	*	*	*	*	*	*	*	*	*	*	*	*	*	*	*	*	*
!	!	!	!	!	!	!	!LO:TX:a:t=[[tylko tu do persi moiej nie zajrzą]]	!	!	!	!	!	!	!	!	!	!	!	!	!	!	!	!	!	!	!	!	!	!
!	!	!	!	!	!	!LO:DY:rj	!	!	!	!	!	!LO:TX:a:t=Dzień tak iasny tylko tu	!	!	!	!	!	!	!	!	!	!	!	!	!	!	!	!	!
1r	.	32c#X\LLL	.	32e\LLL	32a/LLL 32g/	pp	2r	.	1ryy	1ryy	1ryy	1ryy	1r	.	1r	1ryy	.	1ryy	.	1ryy	.	1ryy	.	1ryy	.	1ryy	.	1ryy	.
.	.	32c#\	.	32e\	32a/ 32g/	.	.	.	.	.	.	.	.	.	.	.	.	.	.	.	.	.	.	.	.	.	.	.	.
.	.	32c#\	.	32e\	32a/ 32g/	.	.	.	.	.	.	.	.	.	.	.	.	.	.	.	.	.	.	.	.	.	.	.	.
.	.	32c#\	.	32e\	32a/ 32g/	.	.	.	.	.	.	.	.	.	.	.	.	.	.	.	.	.	.	.	.	.	.	.	.
.	.	32c#\	.	32e\	32a/ 32g/	.	.	.	.	.	.	.	.	.	.	.	.	.	.	.	.	.	.	.	.	.	.	.	.
.	.	32c#\	.	32e\	32a/ 32g/	.	.	.	.	.	.	.	.	.	.	.	.	.	.	.	.	.	.	.	.	.	.	.	.
.	.	32c#\	.	32e\	32a/ 32g/	.	.	.	.	.	.	.	.	.	.	.	.	.	.	.	.	.	.	.	.	.	.	.	.
.	.	32c#\	.	32e\	32a/ 32g/	.	.	.	.	.	.	.	.	.	.	.	.	.	.	.	.	.	.	.	.	.	.	.	.
.	.	32c#\	.	32e\	32a/ 32g/	.	.	.	.	.	.	.	.	.	.	.	.	.	.	.	.	.	.	.	.	.	.	.	.
.	.	32c#\	.	32e\	32a/ 32g/	.	.	.	.	.	.	.	.	.	.	.	.	.	.	.	.	.	.	.	.	.	.	.	.
.	.	32c#\	.	32e\	32a/ 32g/	.	.	.	.	.	.	.	.	.	.	.	.	.	.	.	.	.	.	.	.	.	.	.	.
.	.	32c#\	.	32e\	32a/ 32g/	.	.	.	.	.	.	.	.	.	.	.	.	.	.	.	.	.	.	.	.	.	.	.	.
.	.	32c#\	.	32e\	32a/ 32g/	.	.	.	.	.	.	.	.	.	.	.	.	.	.	.	.	.	.	.	.	.	.	.	.
.	.	32c#\	.	32e\	32a/ 32g/	.	.	.	.	.	.	.	.	.	.	.	.	.	.	.	.	.	.	.	.	.	.	.	.
.	.	32c#\	.	32e\	32a/ 32g/	.	.	.	.	.	.	.	.	.	.	.	.	.	.	.	.	.	.	.	.	.	.	.	.
.	.	32c#\	.	32e\	32a/ 32g/	.	.	.	.	.	.	.	.	.	.	.	.	.	.	.	.	.	.	.	.	.	.	.	.
.	.	32c#\	.	32e\	32a/ 32g/	.	8r	.	.	.	.	.	.	.	.	.	.	.	.	.	.	.	.	.	.	.	.	.	.
.	.	32c#\	.	32e\	32a/ 32g/	.	.	.	.	.	.	.	.	.	.	.	.	.	.	.	.	.	.	.	.	.	.	.	.
.	.	32c#\	.	32e\	32a/ 32g/	.	.	.	.	.	.	.	.	.	.	.	.	.	.	.	.	.	.	.	.	.	.	.	.
.	.	32c#\	.	32e\	32a/ 32g/	.	.	.	.	.	.	.	.	.	.	.	.	.	.	.	.	.	.	.	.	.	.	.	.
!	!	!	!	!	!	!	!LO:TX:b:t=pizz.	!	!	!	!	!	!	!	!	!	!	!	!	!	!	!	!	!	!	!	!	!	!
.	.	32c#\	.	32e\	32a/ 32g/	.	8a/L	.	.	.	.	.	.	.	.	.	.	.	.	.	.	.	.	.	.	.	.	.	.
.	.	32c#\	.	32e\	32a/ 32g/	.	.	.	.	.	.	.	.	.	.	.	.	.	.	.	.	.	.	.	.	.	.	.	.
.	.	32c#\	.	32e\	32a/ 32g/	.	.	.	.	.	.	.	.	.	.	.	.	.	.	.	.	.	.	.	.	.	.	.	.
.	.	32c#\	.	32e\	32a/ 32g/	.	.	.	.	.	.	.	.	.	.	.	.	.	.	.	.	.	.	.	.	.	.	.	.
.	.	32c#\	.	32e\	32a/ 32g/	.	8ee/J	.	.	.	.	.	.	.	.	.	.	.	.	.	.	.	.	.	.	.	.	.	.
.	.	32c#\	.	32e\	32a/ 32g/	.	.	.	.	.	.	.	.	.	.	.	.	.	.	.	.	.	.	.	.	.	.	.	.
.	.	32c#\	.	32e\	32a/ 32g/	.	.	.	.	.	.	.	.	.	.	.	.	.	.	.	.	.	.	.	.	.	.	.	.
.	.	32c#\	.	32e\	32a/ 32g/	.	.	.	.	.	.	.	.	.	.	.	.	.	.	.	.	.	.	.	.	.	.	.	.
.	.	32c#\	.	32e\	32a/ 32g/	.	8r	.	.	.	.	.	.	.	.	.	.	.	.	.	.	.	.	.	.	.	.	.	.
.	.	32c#\	.	32e\	32a/ 32g/	.	.	.	.	.	.	.	.	.	.	.	.	.	.	.	.	.	.	.	.	.	.	.	.
.	.	32c#\	.	32e\	32a/ 32g/	.	.	.	.	.	.	.	.	.	.	.	.	.	.	.	.	.	.	.	.	.	.	.	.
.	.	32c#\JJJ	.	32e\JJJ	32a/JJJ 32g/	.	.	.	.	.	.	.	.	.	.	.	.	.	.	.	.	.	.	.	.	.	.	.	.
=6	=6	=6	=6	=6	=6	=6	=6	=6	=6	=6	=6	=6	=6	=6	=6	=6	=6	=6	=6	=6	=6	=6	=6	=6	=6	=6	=6	=6	=6
!	!	!	!	!	!	!	!	!	!	!	!	!LO:TX:a:t=ciemno i zimno... tu nie dochodzą promienie \nsłońca	!	!	!	!	!	!	!	!	!	!	!	!	!	!	!	!	!
1r	.	32d\LLL	.	32d\LLL	32a/LLL 32f/	.	2r	.	1ryy	1ryy	1ryy	1ryy	1ryy	.	1ryy	1ryy	.	1ryy	.	1ryy	.	1ryy	.	1ryy	.	1ryy	.	1ryy	.
.	.	32d\	.	32d\	32a/ 32f/	.	.	.	.	.	.	.	.	.	.	.	.	.	.	.	.	.	.	.	.	.	.	.	.
.	.	32d\	.	32d\	32a/ 32f/	.	.	.	.	.	.	.	.	.	.	.	.	.	.	.	.	.	.	.	.	.	.	.	.
.	.	32d\	.	32d\	32a/ 32f/	.	.	.	.	.	.	.	.	.	.	.	.	.	.	.	.	.	.	.	.	.	.	.	.
.	.	32d\	.	32d\	32a/ 32f/	.	.	.	.	.	.	.	.	.	.	.	.	.	.	.	.	.	.	.	.	.	.	.	.
.	.	32d\	.	32d\	32a/ 32f/	.	.	.	.	.	.	.	.	.	.	.	.	.	.	.	.	.	.	.	.	.	.	.	.
.	.	32d\	.	32d\	32a/ 32f/	.	.	.	.	.	.	.	.	.	.	.	.	.	.	.	.	.	.	.	.	.	.	.	.
.	.	32d\	.	32d\	32a/ 32f/	.	.	.	.	.	.	.	.	.	.	.	.	.	.	.	.	.	.	.	.	.	.	.	.
.	.	32d\	.	32d\	32a/ 32f/	.	.	.	.	.	.	.	.	.	.	.	.	.	.	.	.	.	.	.	.	.	.	.	.
.	.	32d\	.	32d\	32a/ 32f/	.	.	.	.	.	.	.	.	.	.	.	.	.	.	.	.	.	.	.	.	.	.	.	.
.	.	32d\	.	32d\	32a/ 32f/	.	.	.	.	.	.	.	.	.	.	.	.	.	.	.	.	.	.	.	.	.	.	.	.
.	.	32d\	.	32d\	32a/ 32f/	.	.	.	.	.	.	.	.	.	.	.	.	.	.	.	.	.	.	.	.	.	.	.	.
.	.	32d\	.	32d\	32a/ 32f/	.	.	.	.	.	.	.	.	.	.	.	.	.	.	.	.	.	.	.	.	.	.	.	.
.	.	32d\	.	32d\	32a/ 32f/	.	.	.	.	.	.	.	.	.	.	.	.	.	.	.	.	.	.	.	.	.	.	.	.
.	.	32d\	.	32d\	32a/ 32f/	.	.	.	.	.	.	.	.	.	.	.	.	.	.	.	.	.	.	.	.	.	.	.	.
.	.	32d\	.	32d\	32a/ 32f/	.	.	.	.	.	.	.	.	.	.	.	.	.	.	.	.	.	.	.	.	.	.	.	.
.	.	32d\	.	32d\	32a/ 32f/	.	8r	.	.	.	.	.	.	.	.	.	.	.	.	.	.	.	.	.	.	.	.	.	.
.	.	32d\	.	32d\	32a/ 32f/	.	.	.	.	.	.	.	.	.	.	.	.	.	.	.	.	.	.	.	.	.	.	.	.
.	.	32d\	.	32d\	32a/ 32f/	.	.	.	.	.	.	.	.	.	.	.	.	.	.	.	.	.	.	.	.	.	.	.	.
.	.	32d\	.	32d\	32a/ 32f/	.	.	.	.	.	.	.	.	.	.	.	.	.	.	.	.	.	.	.	.	.	.	.	.
.	.	32d\	.	32d\	32a/ 32f/	.	8a/L	.	.	.	.	.	.	.	.	.	.	.	.	.	.	.	.	.	.	.	.	.	.
.	.	32d\	.	32d\	32a/ 32f/	.	.	.	.	.	.	.	.	.	.	.	.	.	.	.	.	.	.	.	.	.	.	.	.
.	.	32d\	.	32d\	32a/ 32f/	.	.	.	.	.	.	.	.	.	.	.	.	.	.	.	.	.	.	.	.	.	.	.	.
.	.	32d\	.	32d\	32a/ 32f/	.	.	.	.	.	.	.	.	.	.	.	.	.	.	.	.	.	.	.	.	.	.	.	.
.	.	32d\	.	32d\	32a/ 32f/	.	8ff/J	.	.	.	.	.	.	.	.	.	.	.	.	.	.	.	.	.	.	.	.	.	.
.	.	32d\	.	32d\	32a/ 32f/	.	.	.	.	.	.	.	.	.	.	.	.	.	.	.	.	.	.	.	.	.	.	.	.
.	.	32d\	.	32d\	32a/ 32f/	.	.	.	.	.	.	.	.	.	.	.	.	.	.	.	.	.	.	.	.	.	.	.	.
.	.	32d\	.	32d\	32a/ 32f/	.	.	.	.	.	.	.	.	.	.	.	.	.	.	.	.	.	.	.	.	.	.	.	.
.	.	32d\	.	32d\	32a/ 32f/	.	8r	.	.	.	.	.	.	.	.	.	.	.	.	.	.	.	.	.	.	.	.	.	.
.	.	32d\	.	32d\	32a/ 32f/	.	.	.	.	.	.	.	.	.	.	.	.	.	.	.	.	.	.	.	.	.	.	.	.
.	.	32d\	.	32d\	32a/ 32f/	.	.	.	.	.	.	.	.	.	.	.	.	.	.	.	.	.	.	.	.	.	.	.	.
.	.	32d\JJJ	.	32d\JJJ	32a/JJJ 32f/	.	.	.	.	.	.	.	.	.	.	.	.	.	.	.	.	.	.	.	.	.	.	.	.
!!LO:PB:g=original
=7	=7	=7	=7	=7	=7	=7	=7	=7	=7	=7	=7	=7	=7	=7	=7	=7	=7	=7	=7	=7	=7	=7	=7	=7	=7	=7	=7	=7	=7
!	!	!	!	!	!	!	!LO:TX:a:t=[[czasami aż się dziwić muszę \nw rzędzie taka iasność, a tu wewnątrz ciemność pozostaie]]	!	!	!	!	!	!	!	!	!	!	!	!	!	!	!	!	!	!	!	!	!	!
1r	.	32B\LLL	.	32f\LLL 32d\	32g/LLL	.	2r	.	1ryy	1ryy	1ryy	1ryy	1ryy	.	1ryy	1ryy	.	1ryy	.	1ryy	.	1ryy	.	1ryy	.	1ryy	.	1ryy	.
.	.	32B\	.	32f\ 32d\	32g/	.	.	.	.	.	.	.	.	.	.	.	.	.	.	.	.	.	.	.	.	.	.	.	.
.	.	32B\	.	32f\ 32d\	32g/	.	.	.	.	.	.	.	.	.	.	.	.	.	.	.	.	.	.	.	.	.	.	.	.
.	.	32B\	.	32f\ 32d\	32g/	.	.	.	.	.	.	.	.	.	.	.	.	.	.	.	.	.	.	.	.	.	.	.	.
.	.	32B\	.	32f\ 32d\	32g/	.	.	.	.	.	.	.	.	.	.	.	.	.	.	.	.	.	.	.	.	.	.	.	.
.	.	32B\	.	32f\ 32d\	32g/	.	.	.	.	.	.	.	.	.	.	.	.	.	.	.	.	.	.	.	.	.	.	.	.
.	.	32B\	.	32f\ 32d\	32g/	.	.	.	.	.	.	.	.	.	.	.	.	.	.	.	.	.	.	.	.	.	.	.	.
.	.	32B\	.	32f\ 32d\	32g/	.	.	.	.	.	.	.	.	.	.	.	.	.	.	.	.	.	.	.	.	.	.	.	.
.	.	32B\	.	32f\ 32d\	32g/	.	.	.	.	.	.	.	.	.	.	.	.	.	.	.	.	.	.	.	.	.	.	.	.
.	.	32B\	.	32f\ 32d\	32g/	.	.	.	.	.	.	.	.	.	.	.	.	.	.	.	.	.	.	.	.	.	.	.	.
.	.	32B\	.	32f\ 32d\	32g/	.	.	.	.	.	.	.	.	.	.	.	.	.	.	.	.	.	.	.	.	.	.	.	.
.	.	32B\	.	32f\ 32d\	32g/	.	.	.	.	.	.	.	.	.	.	.	.	.	.	.	.	.	.	.	.	.	.	.	.
.	.	32B\	.	32f\ 32d\	32g/	.	.	.	.	.	.	.	.	.	.	.	.	.	.	.	.	.	.	.	.	.	.	.	.
.	.	32B\	.	32f\ 32d\	32g/	.	.	.	.	.	.	.	.	.	.	.	.	.	.	.	.	.	.	.	.	.	.	.	.
.	.	32B\	.	32f\ 32d\	32g/	.	.	.	.	.	.	.	.	.	.	.	.	.	.	.	.	.	.	.	.	.	.	.	.
.	.	32B\	.	32f\ 32d\	32g/	.	.	.	.	.	.	.	.	.	.	.	.	.	.	.	.	.	.	.	.	.	.	.	.
.	.	32B\	.	32f\ 32d\	32g/	.	8r	.	.	.	.	.	.	.	.	.	.	.	.	.	.	.	.	.	.	.	.	.	.
.	.	32B\	.	32f\ 32d\	32g/	.	.	.	.	.	.	.	.	.	.	.	.	.	.	.	.	.	.	.	.	.	.	.	.
.	.	32B\	.	32f\ 32d\	32g/	.	.	.	.	.	.	.	.	.	.	.	.	.	.	.	.	.	.	.	.	.	.	.	.
.	.	32B\	.	32f\ 32d\	32g/	.	.	.	.	.	.	.	.	.	.	.	.	.	.	.	.	.	.	.	.	.	.	.	.
.	.	32B\	.	32f\ 32d\	32g/	.	8g/L	.	.	.	.	.	.	.	.	.	.	.	.	.	.	.	.	.	.	.	.	.	.
.	.	32B\	.	32f\ 32d\	32g/	.	.	.	.	.	.	.	.	.	.	.	.	.	.	.	.	.	.	.	.	.	.	.	.
.	.	32B\	.	32f\ 32d\	32g/	.	.	.	.	.	.	.	.	.	.	.	.	.	.	.	.	.	.	.	.	.	.	.	.
.	.	32B\	.	32f\ 32d\	32g/	.	.	.	.	.	.	.	.	.	.	.	.	.	.	.	.	.	.	.	.	.	.	.	.
.	.	32B\	.	32f\ 32d\	32g/	.	8dd/J	.	.	.	.	.	.	.	.	.	.	.	.	.	.	.	.	.	.	.	.	.	.
.	.	32B\	.	32f\ 32d\	32g/	.	.	.	.	.	.	.	.	.	.	.	.	.	.	.	.	.	.	.	.	.	.	.	.
.	.	32B\	.	32f\ 32d\	32g/	.	.	.	.	.	.	.	.	.	.	.	.	.	.	.	.	.	.	.	.	.	.	.	.
.	.	32B\	.	32f\ 32d\	32g/	.	.	.	.	.	.	.	.	.	.	.	.	.	.	.	.	.	.	.	.	.	.	.	.
.	.	32B\	.	32f\ 32d\	32g/	.	8r	.	.	.	.	.	.	.	.	.	.	.	.	.	.	.	.	.	.	.	.	.	.
.	.	32B\	.	32f\ 32d\	32g/	.	.	.	.	.	.	.	.	.	.	.	.	.	.	.	.	.	.	.	.	.	.	.	.
.	.	32B\	.	32f\ 32d\	32g/	.	.	.	.	.	.	.	.	.	.	.	.	.	.	.	.	.	.	.	.	.	.	.	.
.	.	32B\JJJ	.	32f\JJJ 32d\	32g/JJJ	.	.	.	.	.	.	.	.	.	.	.	.	.	.	.	.	.	.	.	.	.	.	.	.
=8	=8	=8	=8	=8	=8	=8	=8	=8	=8	=8	=8	=8	=8	=8	=8	=8	=8	=8	=8	=8	=8	=8	=8	=8	=8	=8	=8	=8	=8
1r	.	32c\LLL	.	32e\LLL 32c\	32g/LLL	.	2r	.	1ryy	1ryy	1ryy	1ryy	1ryy	.	1ryy	1ryy	.	1ryy	.	1ryy	.	1ryy	.	1ryy	.	1ryy	.	1ryy	.
.	.	32c\	.	32e\ 32c\	32g/	.	.	.	.	.	.	.	.	.	.	.	.	.	.	.	.	.	.	.	.	.	.	.	.
.	.	32c\	.	32e\ 32c\	32g/	.	.	.	.	.	.	.	.	.	.	.	.	.	.	.	.	.	.	.	.	.	.	.	.
.	.	32c\	.	32e\ 32c\	32g/	.	.	.	.	.	.	.	.	.	.	.	.	.	.	.	.	.	.	.	.	.	.	.	.
.	.	32c\	.	32e\ 32c\	32g/	.	.	.	.	.	.	.	.	.	.	.	.	.	.	.	.	.	.	.	.	.	.	.	.
.	.	32c\	.	32e\ 32c\	32g/	.	.	.	.	.	.	.	.	.	.	.	.	.	.	.	.	.	.	.	.	.	.	.	.
.	.	32c\	.	32e\ 32c\	32g/	.	.	.	.	.	.	.	.	.	.	.	.	.	.	.	.	.	.	.	.	.	.	.	.
.	.	32c\	.	32e\ 32c\	32g/	.	.	.	.	.	.	.	.	.	.	.	.	.	.	.	.	.	.	.	.	.	.	.	.
.	.	32c\	.	32e\ 32c\	32g/	.	.	.	.	.	.	.	.	.	.	.	.	.	.	.	.	.	.	.	.	.	.	.	.
.	.	32c\	.	32e\ 32c\	32g/	.	.	.	.	.	.	.	.	.	.	.	.	.	.	.	.	.	.	.	.	.	.	.	.
.	.	32c\	.	32e\ 32c\	32g/	.	.	.	.	.	.	.	.	.	.	.	.	.	.	.	.	.	.	.	.	.	.	.	.
.	.	32c\	.	32e\ 32c\	32g/	.	.	.	.	.	.	.	.	.	.	.	.	.	.	.	.	.	.	.	.	.	.	.	.
.	.	32c\	.	32e\ 32c\	32g/	.	.	.	.	.	.	.	.	.	.	.	.	.	.	.	.	.	.	.	.	.	.	.	.
.	.	32c\	.	32e\ 32c\	32g/	.	.	.	.	.	.	.	.	.	.	.	.	.	.	.	.	.	.	.	.	.	.	.	.
.	.	32c\	.	32e\ 32c\	32g/	.	.	.	.	.	.	.	.	.	.	.	.	.	.	.	.	.	.	.	.	.	.	.	.
.	.	32c\	.	32e\ 32c\	32g/	.	.	.	.	.	.	.	.	.	.	.	.	.	.	.	.	.	.	.	.	.	.	.	.
.	.	32c\	.	32e\ 32c\	32g/	.	8r	.	.	.	.	.	.	.	.	.	.	.	.	.	.	.	.	.	.	.	.	.	.
.	.	32c\	.	32e\ 32c\	32g/	.	.	.	.	.	.	.	.	.	.	.	.	.	.	.	.	.	.	.	.	.	.	.	.
.	.	32c\	.	32e\ 32c\	32g/	.	.	.	.	.	.	.	.	.	.	.	.	.	.	.	.	.	.	.	.	.	.	.	.
.	.	32c\	.	32e\ 32c\	32g/	.	.	.	.	.	.	.	.	.	.	.	.	.	.	.	.	.	.	.	.	.	.	.	.
.	.	32c\	.	32e\ 32c\	32g/	.	8g/L	.	.	.	.	.	.	.	.	.	.	.	.	.	.	.	.	.	.	.	.	.	.
.	.	32c\	.	32e\ 32c\	32g/	.	.	.	.	.	.	.	.	.	.	.	.	.	.	.	.	.	.	.	.	.	.	.	.
.	.	32c\	.	32e\ 32c\	32g/	.	.	.	.	.	.	.	.	.	.	.	.	.	.	.	.	.	.	.	.	.	.	.	.
.	.	32c\	.	32e\ 32c\	32g/	.	.	.	.	.	.	.	.	.	.	.	.	.	.	.	.	.	.	.	.	.	.	.	.
.	.	32c\	.	32e\ 32c\	32g/	.	8ee/J	.	.	.	.	.	.	.	.	.	.	.	.	.	.	.	.	.	.	.	.	.	.
.	.	32c\	.	32e\ 32c\	32g/	.	.	.	.	.	.	.	.	.	.	.	.	.	.	.	.	.	.	.	.	.	.	.	.
.	.	32c\	.	32e\ 32c\	32g/	.	.	.	.	.	.	.	.	.	.	.	.	.	.	.	.	.	.	.	.	.	.	.	.
.	.	32c\	.	32e\ 32c\	32g/	.	.	.	.	.	.	.	.	.	.	.	.	.	.	.	.	.	.	.	.	.	.	.	.
.	.	32c\	.	32e\ 32c\	32g/	.	8r	.	.	.	.	.	.	.	.	.	.	.	.	.	.	.	.	.	.	.	.	.	.
.	.	32c\	.	32e\ 32c\	32g/	.	.	.	.	.	.	.	.	.	.	.	.	.	.	.	.	.	.	.	.	.	.	.	.
.	.	32c\	.	32e\ 32c\	32g/	.	.	.	.	.	.	.	.	.	.	.	.	.	.	.	.	.	.	.	.	.	.	.	.
.	.	32c\JJJ	.	32e\JJJ 32c\	32g/JJJ	.	.	.	.	.	.	.	.	.	.	.	.	.	.	.	.	.	.	.	.	.	.	.	.
=9||	=9||	=9||	=9||	=9||	=9||	=9||	=9||	=9||	=9||	=9||	=9||	=9||	=9||	=9||	=9||	=9||	=9||	=9||	=9||	=9||	=9||	=9||	=9||	=9||	=9||	=9||	=9||	=9||	=9||
1ryy	.	1ryy	.	1ryy	1ryy	.	1ryy	.	1ryy	1ryy	1ryy	1ryy	1ryy	.	1ryy	1ryy	.	1ryy	.	1ryy	.	1ryy	.	1ryy	.	1ryy	.	1ryy	.
=10||	=10||	=10||	=10||	=10||	=10||	=10||	=10||	=10||	=10||	=10||	=10||	=10||	=10||	=10||	=10||	=10||	=10||	=10||	=10||	=10||	=10||	=10||	=10||	=10||	=10||	=10||	=10||	=10||	=10||
*	*	*	*	*	*	*	*	*	*	*	*	*	*	*	*	*clefC4	*	*	*	*	*	*	*	*	*	*	*	*	*
!	!	!	!	!	!	!	!	!	!LO:TX:a:t=teraz wiem co zrobie. usiądę sobie pod studniaą [[i zamknę oczy]]	!	!	!	!	!	!	!	!	!	!LO:DY:a	!	!	!	!	!	!LO:DY:a	!	!	!	!
!	!	!	!	!	!	!	!	!	!	!	!	!	!	!	!	!	!LO:DY:rj	!	!	!	!	!	!LO:DY:rj	!	!LO:DY:rj	!	!	!	!
1r	.	1r	.	1r	1r	.	1r	.	1ryy	1ryy	1ryy	1ryy	1ryy	.	1ryy	1g#X\	p	1r	.	1r	.	1dd\ 1b\	p	4.ee/	p	1ryy	.	1ryy	.
.	.	.	.	.	.	.	.	.	.	.	.	.	.	.	.	.	.	.	.	.	.	.	.	8ff/	.	.	.	.	.
.	.	.	.	.	.	.	.	.	.	.	.	.	.	.	.	.	.	.	.	.	.	.	.	2ee/	.	.	.	.	.
!!LO:PB:g=original
=11	=11	=11	=11	=11	=11	=11	=11	=11	=11	=11	=11	=11	=11	=11	=11	=11	=11	=11	=11	=11	=11	=11	=11	=11	=11	=11	=11	=11	=11
*	*	*	*	*	*	*	*	*	*	*	*	*	*	*	*	*	*	*	*	*	*	*	*	*^	*	*	*	*	*
1r	.	1r	.	1r	1r	.	1r	.	1ryy	1ryy	1ryy	1ryy	1ryy	.	1ryy	(2.a\	.	1r	.	1r	.	[1cc/ [1a/	.	2.ee/	1r	.	1ryy	.	1ryy	.
.	.	.	.	.	.	.	.	.	.	.	.	.	.	.	.	4g\	.	.	.	.	.	.	.	4ee-X/	.	.	.	.	.	.
=12	=12	=12	=12	=12	=12	=12	=12	=12	=12	=12	=12	=12	=12	=12	=12	=12	=12	=12	=12	=12	=12	=12	=12	=12	=12	=12	=12	=12	=12	=12
1r	.	1r	.	1r	1r	.	1r	.	1ryy	1ryy	1ryy	1ryy	1ryy	.	1ryy	1f#X\)	.	1r	.	1r	.	1cc/] 1a/]	.	4.dd/	1r	.	1ryy	.	1ryy	.
.	.	.	.	.	.	.	.	.	.	.	.	.	.	.	.	.	.	.	.	.	.	.	.	8ee-X/	.	.	.	.	.	.
.	.	.	.	.	.	.	.	.	.	.	.	.	.	.	.	.	.	.	.	.	.	.	.	(2dd/	.	.	.	.	.	.
*	*	*	*	*	*	*	*	*	*	*	*	*	*	*	*	*	*	*	*	*	*	*	*	*v	*v	*	*	*	*	*
=13	=13	=13	=13	=13	=13	=13	=13	=13	=13	=13	=13	=13	=13	=13	=13	=13	=13	=13	=13	=13	=13	=13	=13	=13	=13	=13	=13	=13	=13
!	!	!	!	!	!	!	!	!	!LO:TX:a:t=i zamkne [[tak przymróże]] oczy	!	!	!	!	!	!	!	!	!	!	!	!	!	!	!	!	!	!	!	!
1r	.	1r	.	1r	8r	.	8r	.	1ryy	1ryy	1ryy	1ryy	1ryy	.	1ryy	8g\	.	1r	.	1r	.	8b/ 8g/	.	8ee/)	.	1ryy	.	1ryy	.
.	.	.	.	.	(8qf#X/	.	(8qff#X/	f	.	.	.	.	.	.	.	.	.	.	.	.	.	.	.	.	.	.	.	.	.
.	.	.	.	.	8g/)	.	8gg\)	.	.	.	.	.	.	.	.	8r	.	.	.	.	.	8r	.	8r	.	.	.	.	.
.	.	.	.	.	4G/	.	4g/	.	.	.	.	.	.	.	.	4r	.	.	.	.	.	4r	.	4r	.	.	.	.	.
.	.	.	.	.	2r	.	4r	.	.	.	.	.	.	.	.	2r	.	.	.	.	.	2r	.	2r	.	.	.	.	.
.	.	.	.	.	.	.	8r	p	.	.	.	.	.	.	.	.	.	.	.	.	.	.	.	.	.	.	.	.	.
.	.	.	.	.	.	.	16b\LL	.	.	.	.	.	.	.	.	.	.	.	.	.	.	.	.	.	.	.	.	.	.
.	p	.	.	.	.	p	16cc\JJ	.	.	.	.	.	.	.	.	.	.	.	.	.	.	.	.	.	.	.	.	.	.
=14	=14	=14	=14	=14	=14	=14	=14	=14	=14	=14	=14	=14	=14	=14	=14	=14	=14	=14	=14	=14	=14	=14	=14	=14	=14	=14	=14	=14	=14
*	*	*	*	*	*	*	*	*	*	*	*	*	*	*	*	*	*	*	*	*	*	*^	*	*^	*	*	*	*	*
!	!	!	!	!	!	!	!	!	!LO:TX:a:t=a gdy zasnę	!	!	!	!	!	!	!	!	!	!	!	!	!	!	!	!	!	!	!	!	!	!
4GG/	.	1ryy	.	4d\ 4B\	4f/ 4G/	.	4dd\	.	1ryy	1ryy	1ryy	1ryy	1ryy	.	1ryy	1r	.	1r	.	1r	.	2r	1r	.	2r	1r	.	1ryy	.	1ryy	.
4r	.	.	.	4r	4r	.	4r	.	.	.	.	.	.	.	.	.	.	.	.	.	.	.	.	.	.	.	.	.	.	.	.
2r	.	.	.	2r	2r	.	8.r	.	.	.	.	.	.	.	.	.	.	.	.	.	.	8.r	.	.	8.r	.	p	.	.	.	.
!	!	!	!	!	!	!	!LO:TX:a:t=Solo	!	!	!	!	!	!	!	!	!	!	!	!	!	!	!	!	!	!	!	!	!	!	!	!
.	.	.	.	.	.	.	16gg\	.	.	.	.	.	.	.	.	.	.	.	.	.	.	16gg\	.	.	16gg\|	.	.	.	.	.	.
.	.	.	.	.	.	.	(16aa\LL	.	.	.	.	.	.	.	.	.	.	.	.	.	.	(16ff#X\LL	.	.	(16aa\LL	.	.	.	.	.	.
.	.	.	.	.	.	.	16bb\	.	.	.	.	.	.	.	.	.	.	.	.	.	.	16ffn\	.	.	16gg\)	.	.	.	.	.	.
.	.	.	.	.	.	.	16ccc\	.	.	.	.	.	.	.	.	.	.	.	.	.	.	16ee\	.	.	16gg'\	.	.	.	.	.	.
.	.	.	.	.	.	.	16ddd\JJ)	.	.	.	.	.	.	.	.	.	.	.	.	.	.	16b\JJ	.	.	16gg'\JJ	.	.	.	.	.	.
!!LO:PB:g=original
=15	=15	=15	=15	=15	=15	=15	=15	=15	=15	=15	=15	=15	=15	=15	=15	=15	=15	=15	=15	=15	=15	=15	=15	=15	=15	=15	=15	=15	=15	=15	=15
*	*	*	*	*	*	*	*^	*	*	*	*	*	*	*	*	*	*	*	*	*	*	*	*	*	*	*	*	*	*	*	*
!	!	!	!	!	!	!	!	!	!	!LO:TX:a:t=przyjdzie sobie poczciwy sen ni ztąd ni zowąd a gdy zasnę wtedy serce	!	!	!	!	!	!	!	!	!	!	!	!	!	!	!	!	!	!	!	!	!	!
!	!	!	!	!	!	!	!	!	!	!	!	!	!	!	!	!	!	!	!	!	!	!	!	!	!LO:DY:rj	!	!	!LO:DY:rj	!	!	!	!
1r	.	1r	.	1r	1r	.	(2eee\	1r	.	1ryy	1ryy	1ryy	1ryy	1ryy	.	1ryy	1r	.	1ryy	.	1ryy	.	(2cc/)	1r	p	2ccc/	1r	p	1r	.	1r	.
.	.	.	.	.	.	.	8ddd\L	.	.	.	.	.	.	.	.	.	.	.	.	.	.	.	8a#X/L	.	.	(8bb/L	.	.	.	.	.	.
.	.	.	.	.	.	.	8ccc\	.	.	.	.	.	.	.	.	.	.	.	.	.	.	.	8b/	.	.	8aa/	.	.	.	.	.	.
.	.	.	.	.	.	.	8bb\	.	.	.	.	.	.	.	.	.	.	.	.	.	.	.	8f/	.	.	8gg/	.	.	.	.	.	.
.	.	.	.	.	.	.	8aa\J)	.	.	.	.	.	.	.	.	.	.	.	.	.	.	.	8g/J)	.	.	8ff/J)	.	.	.	.	.	.
*	*	*	*	*	*	*	*	*	*	*	*	*	*	*	*	*	*clefF4	*	*	*	*	*	*	*	*	*	*	*	*	*	*	*
*	*	*	*	*	*	*	*	*	*	*	*	*	*	*	*	*	*	*	*	*	*	*	*v	*v	*	*	*	*	*	*	*	*
=16	=16	=16	=16	=16	=16	=16	=16	=16	=16	=16	=16	=16	=16	=16	=16	=16	=16	=16	=16	=16	=16	=16	=16	=16	=16	=16	=16	=16	=16	=16	=16
*	*	*	*	*	*	*	*	*	*	*	*	*	*	*	*	*	*^	*	*	*	*	*	*	*	*	*	*	*	*	*	*
1ryy	.	1ryy	.	1ryy	1ryy	.	(2gg\	1r	.	1ryy	1ryy	1ryy	1ryy	1ryy	.	1ryy	2.c/	1r	p	1ryy	.	1r	.	1r	.	(2ee/	1r	.	1r	.	1r	.
.	.	.	.	.	.	.	4ee\)	.	.	.	.	.	.	.	.	.	.	.	.	.	.	.	.	.	.	4cc/)	.	.	.	.	.	.
.	.	.	.	.	.	.	4ee\	.	.	.	.	.	.	.	.	.	(4c/	.	.	.	.	.	.	.	.	4cc/	.	.	.	.	.	.
=17	=17	=17	=17	=17	=17	=17	=17	=17	=17	=17	=17	=17	=17	=17	=17	=17	=17	=17	=17	=17	=17	=17	=17	=17	=17	=17	=17	=17	=17	=17	=17	=17
!	!	!	!	!	!	!	!	!	!	!LO:TX:a:t=się otwiera a słonce do niego zagląda	!	!	!	!	!	!	!	!	!	!	!	!	!	!	!	!	!	!	!	!	!	!
!	!	!	!	!	!	!	!	!	!	!	!	!	!	!	!	!	!	!	!	!	!	!	!LO:DY:rj	!	!	!	!	!	!	!	!	!
1ryy	.	1ryy	.	1ryy	1ryy	.	(4.ff\	1r	.	1ryy	1ryy	1ryy	1ryy	1ryy	.	1ryy	1B/)	1r	.	1ryy	.	1g/ 1c/	p	1r	.	(4.dd/	1r	.	1r	.	1r	.
.	.	.	.	.	.	.	16ee\LL	.	.	.	.	.	.	.	.	.	.	.	.	.	.	.	.	.	.	16cc#X/LL	.	.	.	.	.	.
.	.	.	.	.	.	.	16ff\JJ	.	.	.	.	.	.	.	.	.	.	.	.	.	.	.	.	.	.	16dd/JJ	.	.	.	.	.	.
.	.	.	.	.	.	.	4ddd\)	.	.	.	.	.	.	.	.	.	.	.	.	.	.	.	.	.	.	4ff/)	.	.	.	.	.	.
.	.	.	.	.	.	.	4ff\	.	.	.	.	.	.	.	.	.	.	.	.	.	.	.	.	.	.	4dd/	.	.	.	.	.	.
*	*	*	*	*	*	*	*	*	*	*	*	*	*	*	*	*	*v	*v	*	*	*	*	*	*	*	*	*	*	*	*	*	*
=18	=18	=18	=18	=18	=18	=18	=18	=18	=18	=18	=18	=18	=18	=18	=18	=18	=18	=18	=18	=18	=18	=18	=18	=18	=18	=18	=18	=18	=18	=18	=18
*	*	*	*	*	*	*	*	*	*	*	*	*	*	*	*	*	*	*	*	*	*^	*	*^	*	*	*	*	*	*	*	*
1ryy	.	1ryy	.	1ryy	1ryy	.	(8ee\L	1r	.	1ryy	1ryy	1ryy	1ryy	1ryy	.	1ryy	(>8c/L	.	1ryy	.	4a/	4f\	.	2r	1r	.	(8cc/L	1r	.	1r	.	1r	.
.	.	.	.	.	.	.	8dd\	.	.	.	.	.	.	.	.	.	8B/	.	.	.	.	.	.	.	.	.	8g/J	.	.	.	.	.	.
.	.	.	.	.	.	.	8ee\	.	.	.	.	.	.	.	.	.	8c/	.	.	.	4r	2.ryy	.	.	.	.	4cc/	.	.	.	.	.	.
.	.	.	.	.	.	.	8ff\J	.	.	.	.	.	.	.	.	.	8A/J	.	.	.	.	.	.	.	.	.	.	.	.	.	.	.	.
.	.	.	.	.	.	.	8.dd\)	.	.	.	.	.	.	.	.	.	8G/)	.	.	.	2r	.	.	8.r	.	.	8.b/)	.	.	.	.	.	.
.	.	.	.	.	.	.	.	.	.	.	.	.	.	.	.	.	8r	.	.	.	.	.	.	.	.	.	.	.	.	.	.	.	.
.	.	.	.	.	.	.	(16gg\	.	.	.	.	.	.	.	.	.	.	.	.	.	.	.	.	16gg/	.	.	16gg/	.	.	.	.	.	.
.	.	.	.	.	.	.	16aa\LL	.	.	.	.	.	.	.	.	.	4r	.	.	.	.	.	.	(16ff#X/LL	.	.	(16aa/LL	.	.	.	.	.	.
.	.	.	.	.	.	.	16bb\	.	.	.	.	.	.	.	.	.	.	.	.	.	.	.	.	16ffn/	.	.	16gg/)	.	.	.	.	.	.
.	.	.	.	.	.	.	16ccc\	.	.	.	.	.	.	.	.	.	.	.	.	.	.	.	.	16ee/	.	.	16gg'/	.	.	.	.	.	.
.	.	.	.	.	.	.	16ddd\JJ	.	.	.	.	.	.	.	.	.	.	.	.	.	.	.	.	16b/JJ	.	.	16gg'/JJ	.	.	.	.	.	.
*	*	*	*	*	*	*	*	*	*	*	*	*	*	*	*	*	*	*	*	*	*v	*v	*	*	*	*	*	*	*	*	*	*	*
!!LO:PB:g=original
=19	=19	=19	=19	=19	=19	=19	=19	=19	=19	=19	=19	=19	=19	=19	=19	=19	=19	=19	=19	=19	=19	=19	=19	=19	=19	=19	=19	=19	=19	=19	=19	=19
1r	.	1r	.	1r	1r	.	(2eee\)	1r	.	1ryy	1ryy	1ryy	1ryy	1ryy	.	1ryy	1r	.	1r	.	1r	.	(2cc/)	1r	.	2ccc/	1r	.	1ryy	.	1ryy	.
.	.	.	.	.	.	.	8ddd\L	.	.	.	.	.	.	.	.	.	.	.	.	.	.	.	8g#X/L	.	.	(8bb/L	.	.	.	.	.	.
.	.	.	.	.	.	.	8ccc\	.	.	.	.	.	.	.	.	.	.	.	.	.	.	.	8a/	.	.	8aa/	.	.	.	.	.	.
.	.	.	.	.	.	.	8bb\	.	.	.	.	.	.	.	.	.	.	.	.	.	.	.	8e/	.	.	8gg/	.	.	.	.	.	.
.	.	.	.	.	.	.	8aa\J	.	.	.	.	.	.	.	.	.	.	.	.	.	.	.	8f/J)	.	.	8ff/J)	.	.	.	.	.	.
*	*	*	*	*	*	*	*	*	*	*	*	*	*	*	*	*	*	*	*	*	*	*	*v	*v	*	*	*	*	*	*	*	*
=20	=20	=20	=20	=20	=20	=20	=20	=20	=20	=20	=20	=20	=20	=20	=20	=20	=20	=20	=20	=20	=20	=20	=20	=20	=20	=20	=20	=20	=20	=20	=20
*	*	*	*	*	*	*	*	*	*	*	*	*	*	*	*	*	*^	*	*	*	*	*	*	*	*	*	*	*	*	*	*
*	*	*	*	*	*	*	*	*	*	*	*	*	*	*	*	*	*clefC4	*	*	*	*	*	*	*	*	*	*	*	*	*	*	*
1r	.	1r	.	1r	1r	.	(2gg\)	1r	.	1ryy	1ryy	1ryy	1ryy	1ryy	.	1ryy	(2c/	1r	.	1r	.	1r	.	1r	.	(2ee/	1r	.	1ryy	.	1ryy	.
.	.	.	.	.	.	.	4ee\)	.	.	.	.	.	.	.	.	.	4a/	.	.	.	.	.	.	.	.	4cc/)	.	.	.	.	.	.
.	.	.	.	.	.	.	4ee\	.	.	.	.	.	.	.	.	.	4g/)	.	.	.	.	.	.	.	.	4cc/	.	.	.	.	.	.
=21	=21	=21	=21	=21	=21	=21	=21	=21	=21	=21	=21	=21	=21	=21	=21	=21	=21	=21	=21	=21	=21	=21	=21	=21	=21	=21	=21	=21	=21	=21	=21	=21
1r	.	2r	.	2r	2r	.	(4dd\	2r	.	1ryy	1ryy	1ryy	1ryy	1ryy	.	1ryy	(4f/	1r	.	1ryy	.	2r	.	1r	.	(2a/	1r	.	1ryy	.	1ryy	.
.	.	.	.	.	.	.	8ee\L	.	.	.	.	.	.	.	.	.	8e/L	.	.	.	.	.	.	.	.	.	.	.	.	.	.	.
.	.	.	.	.	.	.	8ff\J	.	.	.	.	.	.	.	.	.	8d/J	.	.	.	.	.	.	.	.	.	.	.	.	.	.	.
.	.	4r	.	4r	4r	p	4g/	4r	.	.	.	.	.	.	.	.	4g/)	.	.	.	.	4r	.	.	.	4g/)	.	.	.	.	.	.
!	!	!	!	!	!	!	!LO:TX:a:t=tu	!	!	!	!	!	!	!	!	!	!	!	!	!	!	!	!	!	!	!	!	!	!	!	!	!
.	.	.	p	.	.	.	.	.	.	.	.	.	.	.	.	.	.	.	.	.	.	.	p	.	.	.	.	.	.	.	.	.
.	.	4GG/	.	4d\	4f/ 4G/	.	(<4b/)	4ryy	.	.	.	.	.	.	.	.	4r	.	.	.	.	4g/ 4c/	.	.	.	4r	.	.	.	.	.	.
*	*	*	*	*	*	*	*v	*v	*	*	*	*	*	*	*	*	*v	*v	*	*	*	*	*	*	*	*v	*v	*	*	*	*	*
.	.	.	.	.	.	.	16qqa/LL	.	.	.	.	.	.	.	.	.	.	.	.	.	.	.	.	.	.	.	.	.	.
.	.	.	.	.	.	.	16qqb/JJ	.	.	.	.	.	.	.	.	.	.	.	.	.	.	.	.	.	.	.	.	.	.
=22	=22	=22	=22	=22	=22	=22	=22	=22	=22	=22	=22	=22	=22	=22	=22	=22	=22	=22	=22	=22	=22	=22	=22	=22	=22	=22	=22	=22	=22
!	!	!	!	!	!	!	!LO:TX:a:t=tutti	!	!LO:TX:a:t=tak dobrze tak dobrze (zasypia)	!	!	!	!	!	!	!	!	!	!	!	!	!	!	!	!	!	!	!	!
1r	.	[>1C/	.	[1c\	2e/ 2G/	.	2cc\)	.	1ryy	1ryy	1ryy	1ryy	1ryy	.	1ryy	1r	.	1ryy	.	4f/ 4A/	.	1ryy	.	1ryy	.	1ryy	.	1ryy	.
.	.	.	.	.	.	.	.	.	.	.	.	.	.	.	.	.	.	.	.	4r	.	.	.	.	.	.	.	.	.
.	.	.	.	.	(>2g/	.	(>2b-X/	.	.	.	.	.	.	.	.	.	.	.	.	2r	.	.	.	.	.	.	.	.	.
=23	=23	=23	=23	=23	=23	=23	=23	=23	=23	=23	=23	=23	=23	=23	=23	=23	=23	=23	=23	=23	=23	=23	=23	=23	=23	=23	=23	=23	=23
1r	.	1C/_>	.	1c\_	1f/	.	2a/	.	1ryy	1ryy	1ryy	1ryy	1ryy	.	1ryy	1ryy	.	1ryy	.	1r	.	1ryy	.	1ryy	.	1ryy	.	1ryy	.
.	.	.	.	.	.	.	2a-X/	.	.	.	.	.	.	.	.	.	.	.	.	.	.	.	.	.	.	.	.	.	.
=24	=24	=24	=24	=24	=24	=24	=24	=24	=24	=24	=24	=24	=24	=24	=24	=24	=24	=24	=24	=24	=24	=24	=24	=24	=24	=24	=24	=24	=24
1r	.	1C/]	.	1c\]	2e/	.	2g/	.	1ryy	1ryy	1ryy	1ryy	1ryy	.	1ryy	1ryy	.	1ryy	.	1r	.	1ryy	.	1ryy	.	1ryy	.	1ryy	.
.	.	.	.	.	2d#X/)	.	2f#X/	.	.	.	.	.	.	.	.	.	.	.	.	.	.	.	.	.	.	.	.	.	.
!!LO:PB:g=original
=25	=25	=25	=25	=25	=25	=25	=25	=25	=25	=25	=25	=25	=25	=25	=25	=25	=25	=25	=25	=25	=25	=25	=25	=25	=25	=25	=25	=25	=25
[1C/	.	1ryy	.	2G/	(2e/	.	(2g/)	.	1ryy	1ryy	1ryy	1ryy	1ryy	.	1ryy	1ryy	.	1ryy	.	1ryy	.	1ryy	.	1ryy	.	1ryy	.	1ryy	.
.	.	.	.	2A/	2d#X/)	.	2f#X/)	.	.	.	.	.	.	.	.	.	.	.	.	.	.	.	.	.	.	.	.	.	.
=26	=26	=26	=26	=26	=26	=26	=26	=26	=26	=26	=26	=26	=26	=26	=26	=26	=26	=26	=26	=26	=26	=26	=26	=26	=26	=26	=26	=26	=26
1C/]	.	1ryy	.	(4G/	(4e/	.	(4g/	.	1ryy	1ryy	1ryy	1ryy	1ryy	.	1ryy	1ryy	.	1ryy	.	1ryy	.	1ryy	.	1ryy	.	1ryy	.	1ryy	.
.	.	.	.	4A/	4d#X/	.	4f#X/	.	.	.	.	.	.	.	.	.	.	.	.	.	.	.	.	.	.	.	.	.	.
.	.	.	.	4G/	4e/	.	4g/	.	.	.	.	.	.	.	.	.	.	.	.	.	.	.	.	.	.	.	.	.	.
.	.	.	.	4A/)	4d#/)	.	4f#/)	.	.	.	.	.	.	.	.	.	.	.	.	.	.	.	.	.	.	.	.	.	.
=27	=27	=27	=27	=27	=27	=27	=27	=27	=27	=27	=27	=27	=27	=27	=27	=27	=27	=27	=27	=27	=27	=27	=27	=27	=27	=27	=27	=27	=27
[1C/	.	1ryy	.	[2G/	(2e/	.	(2g/	.	1ryy	1ryy	1ryy	1ryy	1ryy	.	1ryy	1ryy	.	1ryy	.	1ryy	.	1ryy	.	1ryy	.	1ryy	.	1ryy	.
.	.	.	.	2G/]	2c/)	.	2e/)	.	.	.	.	.	.	.	.	.	.	.	.	.	.	.	.	.	.	.	.	.	.
=28	=28	=28	=28	=28	=28	=28	=28	=28	=28	=28	=28	=28	=28	=28	=28	=28	=28	=28	=28	=28	=28	=28	=28	=28	=28	=28	=28	=28	=28
1C/_	.	1ryy	.	(2.F/	(>2A/	.	(>2.d/	.	1ryy	1ryy	1ryy	1ryy	1ryy	.	1ryy	1ryy	.	1ryy	.	1ryy	.	1ryy	.	1ryy	.	1ryy	.	1ryy	.
.	.	.	.	.	4A-X/	.	.	.	.	.	.	.	.	.	.	.	.	.	.	.	.	.	.	.	.	.	.	.	.
.	.	.	.	4G/	(4G/)	.	4e/	.	.	.	.	.	.	.	.	.	.	.	.	.	.	.	.	.	.	.	.	.	.
=29	=29	=29	=29	=29	=29	=29	=29	=29	=29	=29	=29	=29	=29	=29	=29	=29	=29	=29	=29	=29	=29	=29	=29	=29	=29	=29	=29	=29	=29
1C/]	.	1ryy	.	1E/)	1G/)	.	1c/)	.	1ryy	1ryy	1ryy	1ryy	1ryy	.	1ryy	1ryy	.	1ryy	.	1ryy	.	1ryy	.	1ryy	.	1ryy	.	1ryy	.
!!LO:PB:g=original
=30||	=30||	=30||	=30||	=30||	=30||	=30||	=30||	=30||	=30||	=30||	=30||	=30||	=30||	=30||	=30||	=30||	=30||	=30||	=30||	=30||	=30||	=30||	=30||	=30||	=30||	=30||	=30||	=30||	=30||
!	!	!	!	!	!	!	!	!	!LO:TX:a:t=/&colon;bierze wiadro wody\ni wylewa na Hanca&colon;/	!	!	!	!LO:TX:a:t=Anusia\nA mój Boże ten\nleniuch śpi w ia-\nsny dzień poczekaj\nnic dobrego	!	!	!	!	!	!	!	!	!	!	!	!	!	!	!	!
1r	.	1r	.	1r	1r	.	4r	.	1ryy	1ryy	1r	1r	1r	.	1r	1r	.	1ryy	.	1r	.	1ryy	.	1ryy	.	4r	.	1r	.
.	.	.	.	.	.	.	(4g/	<	.	.	.	.	.	.	.	.	.	.	.	.	.	.	.	.	.	(4g/	.	.	.
.	.	.	.	.	.	.	8.g/L)	.	.	.	.	.	.	.	.	.	.	.	.	.	.	.	.	.	.	8.g/L)	.	.	.
.	.	.	.	.	.	.	16a/Jk	.	.	.	.	.	.	.	.	.	.	.	.	.	.	.	.	.	.	16a/Jk	.	.	.
.	.	.	.	.	.	.	(32b\LLL	.	.	.	.	.	.	.	.	.	.	.	.	.	.	.	.	.	.	(32b\LLL	<	.	.
.	.	.	.	.	.	.	32cc\	.	.	.	.	.	.	.	.	.	.	.	.	.	.	.	.	.	.	32cc\	.	.	.
.	.	.	.	.	.	.	32dd\	.	.	.	.	.	.	.	.	.	.	.	.	.	.	.	.	.	.	32dd\	.	.	.
.	.	.	.	.	.	.	32ee\	.	.	.	.	.	.	.	.	.	.	.	.	.	.	.	.	.	.	32ee\	.	.	.
.	.	.	.	.	.	.	32ff\	.	.	.	.	.	.	.	.	.	.	.	.	.	.	.	.	.	.	32ff\	.	.	.
.	.	.	.	.	.	.	32gg\	.	.	.	.	.	.	.	.	.	.	.	.	.	.	.	.	.	.	32gg\	.	.	.
.	.	.	.	.	.	.	32aa\	.	.	.	.	.	.	.	.	.	.	.	.	.	.	.	.	.	.	32aa\	.	.	.
.	.	.	.	.	.	.	32bb\JJJ	[[	.	.	.	.	.	.	.	.	.	.	.	.	.	.	.	.	.	32bb\JJJ	.	.	.
=31	=31	=31	=31	=31	=31	=31	=31	=31	=31	=31	=31	=31	=31	=31	=31	=31	=31	=31	=31	=31	=31	=31	=31	=31	=31	=31	=31	=31	=31
*	*	*	*	*	*	*	*	*	*	*	*	*	*	*	*	*	*	*	*	*^	*	*	*	*	*	*	*	*	*
!	!	!	!	!	!	!	!	!	!LO:TX:a:t=/&colon;Hanc\nzrywając się\nchwyta za widła&colon;)	!	!	!	!	!	!	!	!	!	!	!	!	!	!	!	!	!	!	!	!	!
4r	.	1ryy	.	4r	4r	.	4ccc\	f	1r	4r	1r	4r	4r	.	4r	4r	f	1ryy	.	4r	4ryy	.	4r	.	4r	.	4ccc\)	.	4r	f
.	f	.	.	.	.	.	.	.	.	.	.	.	.	f	.	.	.	.	.	.	.	.	.	f	.	.	.	.	.	.
4A-X\	.	.	.	4A-X/	4cc/ 4d/	.	4ff#X\)	.	.	4C/	.	4A-X\	4d\ 4c\	.	4cc/ 4f#X/	4e-X/ 4E-X/	.	.	.	4g/	4f\	.	4ff#X\ 4cc\	.	4ccc\ 4ff#X\	.	4ff#X\	[	4fff#X\	.
4G\	.	.	.	4G/	4b/ 4d/	.	4gg\	.	.	4GG/	.	4G\	4d\ 4B\	.	4b/ 4g/	4d/ 4D/	.	.	.	4g/ 4c/	2ryy	.	4gg\ 4b\	.	4bb\ 4gg\	.	4gg\	.	4ggg\	.
8r	.	.	.	8r	8r	.	8r	.	.	8r	.	8r	8r	.	8r	8r	.	.	.	8r	.	.	8r	.	8r	.	8r	.	8r	.
8G\	.	.	.	8g\	8f/	.	8b/ 8d/	.	.	8GG/	.	8GG/	8f\ 8B\	.	8b/ 8f#/	8d/ 8D/	.	.	.	8g/ 8c/	.	.	8gg\ 8b\	.	8bb\ 8dd\	.	8bb\	.	8ddd\	.
*	*	*	*	*	*	*	*	*	*	*	*	*	*	*	*	*	*	*	*	*v	*v	*	*	*	*	*	*	*	*	*
=32	=32	=32	=32	=32	=32	=32	=32	=32	=32	=32	=32	=32	=32	=32	=32	=32	=32	=32	=32	=32	=32	=32	=32	=32	=32	=32	=32	=32	=32
4GG/	.	1ryy	.	4G/	4b/ 4d/	.	4dd/ 4f/	.	1r	4GG/	1r	4GG/	4f\ 4B\	.	4dd/ 4f/	4d/ 4D/	.	1ryy	.	4g/ 4c/	.	4gg\ 4b\	.	4bb\ 4dd\	.	4ddd\	.	4fff\	.
4r	.	.	.	4r	4r	.	4r	.	.	4r	.	4r	4r	.	4r	4r	.	.	.	4r	.	4r	.	4r	.	4r	.	4r	.
2r	.	.	.	2r	2r	.	2r	.	.	2r	.	2r	2r	.	2r	2r	.	.	.	2r	.	2r	.	2r	.	2r	.	2r	.
==	==	==	==	==	==	==	==	==	==	==	==	==	==	==	==	==	==	==	==	==	==	==	==	==	==	==	==	==	==
*-	*-	*-	*-	*-	*-	*-	*-	*-	*-	*-	*-	*-	*-	*-	*-	*-	*-	*-	*-	*-	*-	*-	*-	*-	*-	*-	*-	*-	*-
!!!system-decoration: [(s1,s2)][(s3,s4)][(s5,s6,s7)][(s8,s9,s10)][(s11,s12,s13)][(s14,s15,s16,s17,s18)]
!!!RDF**kern: > = above
!!!RDF**kern: < = below
!!!EED: Leszek Kubiak
!!!EST: 2021-05-18
!!!ENC:Berenika Jozajtis
!!!END:2021-04-22
!!!RDF**kern: | = vertical stroke
